X:1
T:St. Clement, 98.98
T:St. Clement, 98.98
T:Clement Cotterrill Scholefield, 1874
T:Public Domain Courtesy of the Cyber Hymnal™
C:Clement Cotterrill Scholefield, 1874
Z:Public Domain
Z:Courtesy of the Cyber Hymnal™
%%score ( 1 2 ) ( 3 4 )
L:1/8
M:3/4
K:G
V:1 treble 
V:2 treble 
V:3 bass 
V:4 bass 
V:1
 D2 | ([DB]2 [Ec]2) [DB]2 | (d2 B2) [FA]2 | (G2 A2) E2 | [CG]2 [CF]2 [CE]2 | D4 D2 | %6
 (G2 A2) [DB]2 | A4 [=CG]2 | [DF]4 D2 | [DB]2 [Ec]2 [DB]2 | (d2 B2) [FA]2 | (G2 A2) E2 | %12
 [CG]2 [CF]2 [A,E]2 | z2 E2 [CF]2 | [B,G]2 [DB]2 [EA]2 | z2 G2 [DF]2 | [DG]4 |] %17
V:2
 D2 | x6 | F4 x2 | E4 E2 | x6 | (C2 B,2) D2 | E4 x2 | (D2 ^C2) x2 | x4 D2 | x6 | F4 x2 | E4 E2 | %12
 x6 | D4 x2 | x6 | E4 x2 | x4 |] %17
V:3
 D,2 | [G,,G,]4 G,2 | (A,2 D2) [D,C]2 | [E,B,]2 [A,,C]2 [C,A,]2 | [D,A,]2 [D,A,]2 [E,G,]2 | %5
 ([F,A,]2 [G,B,]2) [F,A,]2 | [E,B,]4 [E,G,]2 | [A,,E,]4 [A,,A,]2 | [D,A,]4 [F,A,]2 | G,4 G,2 | %10
 (A,2 D2) [D,C]2 | [E,B,]2 [A,,C]2 [C,A,]2 | [D,A,]2 [D,A,]2 [C,F,]2 | [B,,G,]4 [D,A,]2 | %14
 G,4 [C,C]2 | C4 [D,A,]2 | [G,,B,]4 |] %17
V:4
 D,2 | x4 G,2 | D,4 x2 | x6 | x6 | x6 | x6 | x6 | x6 | G,4 G,2 | D,4 x2 | x6 | x6 | x6 | %14
 (E,2 B,,2) x2 | (C,2 A,,2) x2 | x4 |] %17

